X: 27479
T: Molly Put The Kettle On
R: reel
M: 4/4
K: Adorian
c>de>d c>A (3AAA|B>Gd>c B>G (3GGG|c>de>d c>AE>A|B>G (3EF^G A2:|
|:(3Bcd e>f g>ed>g|a>ge*d c>A (3AAA|1 c>de>f g2 e*^g|a>ge*d c2:|
2 B>dg*d c>A (3AAA|B>GE*^G A2||

